Catalina-light/actions/22/view-calendar-time-spent.svg

<svg viewBox="0 0 22 22" xmlns="http://www.w3.org/2000/svg">
<defs>
<style id="current-color-scheme" type="text/css">.ColorScheme-Text {
        color:#363636
      }</style>
</defs>
<path class="ColorScheme-Text" d="m4 3c-0.55402 0-1 0.44598-1 1v14c0 0.55402 0.44598 1 1 1h14c0.55402 0 1-0.44598 1-1v-14c0-0.55402-0.44598-1-1-1h-14zm1.9316 3h2.0352c0.21895 9e-5 0.39467 0.12963 0.39453 0.28906l-8e-3 9.4238c-1.5e-4 0.15943-0.17754 0.2872-0.39649 0.28711h-2.0352c-0.21894-9e-5 -0.39467-0.12963-0.39453-0.28906l8e-3 -9.4238c1.5e-4 -0.15943 0.17754-0.2872 0.39649-0.28711zm4.1309 2.5762h2.0352c0.21894 7e-5 0.39472 0.12768 0.39453 0.28711l-8e-3 6.8281c-2e-4 0.15943-0.17754 0.28912-0.39649 0.28906l-2.0352-2e-3c-0.21895-7e-5 -0.39473-0.12768-0.39453-0.28711l8e-3 -6.8281c1.8e-4 -0.15938 0.17752-0.28712 0.39647-0.28706zm3.9805 2.6133 2.0352 2e-3c0.21895 5e-5 0.39484 0.12768 0.39454 0.28711l-8e-3 4.2324c-3e-4 0.15942-0.17754 0.28715-0.39649 0.2871h-2.0352c-0.21894-4e-5 -0.39483-0.12963-0.39453-0.28906l8e-3 -4.2305c3e-4 -0.15943 0.17754-0.2891 0.39649-0.28906z" fill="#363636"/>
</svg>

<svg xmlns="http://www.w3.org/2000/svg" viewBox="0 0 22 22">
  <defs id="defs3051">
    <style type="text/css" id="current-color-scheme">
      .ColorScheme-Text {
        color:#4d4d4d
      }
      </style>
  </defs>
 <path 
     style="fill:currentColor;fill-opacity:1;stroke:none"      
	 class="ColorScheme-Text"
        d="M 4,3 C 3.44598,3 3,3.44598 3,4 l 0,14 c 0,0.55402 0.44598,1 1,1 l 14,0 c 0.55402,0 1,-0.44598 1,-1 L 19,4 C 19,3.44598 18.55402,3 18,3 L 4,3 Z M 5.93164,6 7.9668,6 c 0.21895,9e-5 0.39467,0.12963 0.39453,0.28906 l -0.008,9.42383 C 8.35318,15.87232 8.17579,16.00009 7.95684,16 l -2.03516,0 c -0.21894,-9e-5 -0.39467,-0.12963 -0.39453,-0.28906 l 0.008,-9.42383 C 5.5353,6.12768 5.71269,5.99991 5.93164,6 Z m 4.13086,2.57617 2.03516,0 c 0.21894,7e-5 0.39472,0.12768 0.39453,0.28711 l -0.008,6.82813 c -2e-4,0.15943 -0.17754,0.28912 -0.39649,0.28906 l -2.03515,-0.002 C 9.8336,15.9784 9.65782,15.85079 9.65802,15.69136 l 0.008,-6.82813 C 9.6662,8.70385 9.84354,8.57611 10.06249,8.57617 Z m 3.98047,2.61328 2.03515,0.002 c 0.21895,5e-5 0.39484,0.12768 0.39454,0.28711 l -0.008,4.23243 c -3e-4,0.15942 -0.17754,0.28715 -0.39649,0.2871 l -2.03516,0 c -0.21894,-4e-5 -0.39483,-0.12963 -0.39453,-0.28906 l 0.008,-4.23047 c 3e-4,-0.15943 0.17754,-0.2891 0.39649,-0.28906 z"
     />
</svg>
